symbols/web/hdr_auto/materialsymbolsoutlined/hdr_auto_wght700grad200fill1_24px.svg

<svg xmlns="http://www.w3.org/2000/svg" height="24" width="24"><path d="M6.3 16.9h3.15l.8-2.425h3.5l.775 2.425h3.325L13.575 5.325h-3Zm4.55-4.75 1.1-3.525h.1l1.125 3.525Zm1.15 11q-2.325 0-4.362-.862-2.038-.863-3.55-2.375-1.513-1.513-2.375-3.551Q.85 14.325.85 12t.863-4.363q.862-2.037 2.375-3.55Q5.6 2.575 7.638 1.712 9.675.85 12 .85t4.363.862q2.037.863 3.55 2.375 1.512 1.513 2.375 3.55.862 2.038.862 4.363 0 2.325-.862 4.362-.863 2.038-2.375 3.551-1.513 1.512-3.55 2.375-2.038.862-4.363.862Z"/></svg>

<svg xmlns="http://www.w3.org/2000/svg" height="24" width="24"><path d="M6.3 16.9H9.45L10.25 14.475H13.75L14.525 16.9H17.85L13.575 5.325H10.575ZM10.85 12.15 11.95 8.625H12.05L13.175 12.15ZM12 23.15Q9.675 23.15 7.638 22.288Q5.6 21.425 4.088 19.913Q2.575 18.4 1.713 16.362Q0.85 14.325 0.85 12Q0.85 9.675 1.713 7.637Q2.575 5.6 4.088 4.087Q5.6 2.575 7.638 1.712Q9.675 0.85 12 0.85Q14.325 0.85 16.363 1.712Q18.4 2.575 19.913 4.087Q21.425 5.6 22.288 7.637Q23.15 9.675 23.15 12Q23.15 14.325 22.288 16.362Q21.425 18.4 19.913 19.913Q18.4 21.425 16.363 22.288Q14.325 23.15 12 23.15Z"/></svg>
